X:1
T:Minuet in G Major
T:Notebooks for Anna Magdalena Bach BWV Anhang 116
T:Johann Sebastian Bach (1685 - 1750)
T:Public Domain (PianoXML typeset)
C:Johann Sebastian Bach
Z:Public Domain (PianoXML typeset)
%%score { 1 | 2 }
L:1/8
M:3/4
K:G
V:1 treble nm="Piano"
V:2 bass 
V:1
 (GBdgAf | g2) .G2 .G2 | (GBdgAf | g2) .G2 .G2 |!<(! .e2 .e2 (e!<)!g | .d2) .d2 (dg | c2) (dcBc | %7
!<(! A6)!<)! |!f! (GBdgAf | g2) .G2 .G2 |!p! (GBdgAf | g2) .G2 .G2 |!f! e2 (dcBA | d2) (cBAG | %14
 (3ABc D2) F2 | G6 ::!p! (GABAGF | G2) .E2 .E2 |!f! (gfegfe | f2) .B2 .B2 | (gfegfe | f2) B2 e2 | %22
 (3(fga B2) ^d2 | e3 (^d ef |!p! .g2) (gfed | .e2) (edcB | .c2) (cBAG | F2) (EF D2) | %28
!<(! (A2 .D2) .D2 | (B2 .D2) .D2 | c2 (dcBc | A6)!<)! |!f! (GBdgAf | g2) .G2 .G2 |!p! (GBdgAf | %35
 g2) .G2 .G2 |!f! e2 (dcBA | d2) (cBAG | (3ABc D2) F2 | !fermata!G6 :| %40
V:2
!f! (G,4 D,2 | G,,B,,D,G,D,B,, |!p! G,,4) (D,2 | G,,B,,D,G,D,B,, | C,2) G,2 (C,2 | %5
 B,,2) G,2 (B,,2 | A,,2) F,2 G,2 | (D,E,F,D,E,F, | G,4 D,2 | G,,B,,D,G,D,B,, | G,,4) (D,2 | %11
 G,,B,,D,G,D,B,, | C,2 E,2 G,2 | B,,2 D,2 G,2 | .C,2 .D,2) D,2 | G,2 D,2 G,,2 :: (E,2 ^D,2 B,,2 | %17
 E,2) B,,2 E,,2 | (E,2 G,2 B,2 | B,,^D,F,B,F,D, | E,2 G,2 B,2 | B,,2) A,2 G,2 | (A,2 B,2) B,,2 | %23
 E,6 | (B,,2 D,2 G,2 | C,2 D,2 E,2 | A,,2 B,,2 C,2 | D,2) A,,2 D,,2 | (F,D,F,D,F,D, | %29
 G,D,G,D,G,D, | F,2) D,2 G,2 | (D,E,F,D,E,F, | G,4 D,2 | G,,B,,D,G,D,B,, | G,,4) (D,2 | %35
 G,,B,,D,G,D,B,, | C,2 E,2 G,2 | B,,2 D,2 G,2 | C,4 D,2) | G,2 D,2 !fermata!G,,2 :| %40

